<?xml version="1.0" encoding="UTF-8"?>
<map version="1.10" tiledversion="1.12.0" orientation="orthogonal" renderorder="right-down" width="22" height="69" tilewidth="32" tileheight="32" infinite="0" nextlayerid="12" nextobjectid="1">
 <tileset firstgid="1" source="Room_Builder_32x32.tsx"/>
 <tileset firstgid="8589" source="office_housing.tsx"/>
 <tileset firstgid="9437" source="Interiors_32x32.tsx"/>
 <tileset firstgid="26461" source="Music_and_sport_01.tsx"/>
 <tileset firstgid="27037" source="Interiors_free_32x32.tsx"/>
 <layer id="1" name="바닥" width="22" height="69">
  <data encoding="csv">
0,0,0,0,0,0,0,0,0,0,0,0,0,168,244,244,244,244,244,244,244,0,
0,0,0,0,0,0,0,0,0,0,0,0,0,244,244,244,244,244,244,244,244,0,
0,0,0,0,0,0,0,0,0,0,0,0,0,2080,2080,2080,2080,2080,2080,2080,2080,0,
0,0,0,0,0,0,0,0,0,0,0,0,0,2080,2080,2080,2080,2080,2080,2080,2080,2081,
0,1293,1294,1294,1294,1294,1294,1294,1294,1294,1294,1294,1294,2080,2080,2080,2080,2080,2080,2080,2080,2081,
0,1369,1370,1370,1370,1370,1370,1370,1370,1370,1370,1370,1370,2080,2080,2080,2080,2080,2080,2080,2080,2081,
0,2513,2514,2514,2514,2514,2514,2514,2514,2514,2514,2514,2514,1294,1295,2080,2080,2080,2080,2080,2080,0,
0,2513,2514,2514,2514,2514,2514,2514,2514,2514,2514,2514,2514,1370,1371,2080,2080,2080,2080,2080,2080,0,
0,2513,2514,2514,2514,2514,2514,2514,2514,2514,2514,2514,2514,2080,2080,2080,2080,2080,2080,2080,2080,0,
0,2513,2514,2514,2514,2514,2514,2514,2514,2514,2514,2514,2514,2080,2080,2080,2080,2080,2080,2080,2080,0,
0,2513,2514,2514,2514,2514,2514,2514,2514,2514,2514,2514,2514,168,245,2080,2080,2080,2080,2080,2080,0,
0,2513,2514,2514,2514,2514,2514,2514,2514,2514,2514,2514,2514,244,245,2080,2080,2080,2080,2080,2080,0,
0,2513,2514,2514,2514,2514,2514,2514,2514,2514,2514,2514,2514,2080,2080,2080,2080,2080,2080,2080,2080,0,
0,2513,2514,2514,2514,2514,2514,2514,2514,2514,2514,2514,2514,2080,2080,2080,2080,2080,2080,2080,2080,0,
0,3128,3129,3129,3129,3129,3129,3129,3129,3129,3129,3129,3129,2080,2080,2080,2080,2080,2080,2080,2080,0,
0,3204,3205,3205,3205,3205,3205,3205,3205,3205,3205,3205,3205,2080,2080,2080,2080,2080,2080,2080,2080,0,
0,1319,1320,1320,1320,1320,1320,1320,1320,1320,1320,1320,1320,3129,3130,2080,2080,2080,2080,2080,2080,0,
0,1319,1320,1320,1320,1320,1320,1320,1320,1320,1320,1320,1320,3205,3206,2080,2080,2080,2080,2080,2080,0,
0,1319,1320,1320,1320,1320,1320,1320,1320,1320,1320,1320,1320,2080,2080,2080,2080,2080,2080,2080,2080,0,
0,1319,1320,1320,1320,1320,1320,1320,1320,1320,1320,1320,1320,2080,2080,2080,2080,2080,2080,2080,2080,0,
0,1319,1320,1320,1320,1320,1320,1320,1320,1320,1320,1320,1320,168,245,2080,2080,2080,2080,2080,2080,0,
0,1319,1320,1320,1320,1320,1320,1320,1320,1320,1320,1320,1320,244,245,2080,2080,2080,2080,2080,2080,0,
0,1319,1320,1320,1320,1320,1320,1320,1320,1320,1320,1320,1320,2080,2080,2080,2080,2080,2080,2080,2080,0,
0,1319,1320,1320,1320,1320,1320,1320,1320,1320,1320,1320,1320,2080,2080,2080,2080,2080,2080,2080,2080,0,
0,3421,3422,3422,3422,3422,3422,3422,3422,3422,3422,3422,3422,2080,2080,2080,2080,2080,2080,2080,2080,0,
0,3497,3498,3498,3498,3498,3498,3498,3498,3498,3498,3498,3498,2080,2080,2080,2080,2080,2080,2080,2080,0,
0,3121,3122,3122,3122,3122,3122,3122,3122,3122,3122,3122,3122,3422,3423,2080,2080,2080,2080,2080,2080,0,
0,3121,3122,3122,3122,3122,3122,3122,3122,3122,3122,3122,3122,3498,3499,2080,2080,2080,2080,2080,2080,0,
0,3121,3122,3122,3122,3122,3122,3122,3122,3122,3122,3122,3122,2080,2080,2080,2080,2080,2080,2080,2080,0,
0,3121,3122,3122,3122,3122,3122,3122,3122,3122,3122,3122,3122,2080,2080,2080,2080,2080,2080,2080,2080,0,
0,3121,3122,3122,3122,3122,3122,3122,3122,3122,3122,3122,3122,168,245,2080,2080,2080,2080,2080,2080,0,
0,3121,3122,3122,3122,3122,3122,3122,3122,3122,3122,3122,3122,244,245,2080,2080,2080,2080,2080,2080,0,
0,3121,3122,3122,3122,3122,3122,3122,3122,3122,3122,3122,3122,2080,2080,2080,2080,2080,2080,2080,2080,0,
0,3121,3122,3122,3122,3122,3122,3122,3122,3122,3122,3122,3122,2080,2080,2080,2080,2080,2080,2080,2080,0,
0,2531,2532,2532,2532,2532,2532,2532,2532,2532,2532,2532,2532,2080,2080,2080,2080,2080,2080,2080,2080,0,
0,2607,2608,2608,2608,2608,2608,2608,2608,2608,2608,2608,2608,2080,2080,2080,2080,2080,2080,2080,2080,0,
0,1753,1754,1754,1754,1754,1754,1754,1754,1754,1754,1754,1754,2532,2533,2080,2080,2080,2080,2080,2080,0,
0,1753,1754,1754,1754,1754,1754,1754,1754,1754,1754,1754,1754,2608,2609,2080,2080,2080,2080,2080,2080,0,
0,1753,1754,1754,1754,1754,1754,1754,1754,1754,1754,1754,1754,2080,2080,2080,2080,2080,2080,2080,2080,0,
0,1753,1754,1754,1754,1754,1754,1754,1754,1754,1754,1754,1754,2080,2080,2080,2080,2080,2080,2080,2080,0,
0,1753,1754,1754,1754,1754,1754,1754,1754,1754,1754,1754,1754,168,245,2080,2080,2080,2080,2080,2080,0,
0,1753,1754,1754,1754,1754,1754,1754,1754,1754,1754,1754,1754,244,245,2080,2080,2080,2080,2080,2080,0,
0,1753,1754,1754,1754,1754,1754,1754,1754,1754,1754,1754,1754,2080,2080,2080,2080,2080,2080,2080,2080,0,
0,1753,1754,1754,1754,1754,1754,1754,1754,1754,1754,1754,1754,2080,2080,2080,2080,2080,2080,2080,2080,0,
0,1771,1772,1772,1772,1772,1772,1772,1772,1772,1772,1772,1772,2080,2080,2080,2080,2080,2080,2080,2080,0,
0,1847,1848,1848,1848,1848,1848,1848,1848,1848,1848,1848,1848,2080,2080,2080,2080,2080,2080,2080,2080,0,
0,1623,1624,1624,1624,1624,1624,1624,1624,1624,1624,1624,1624,1772,1773,2080,2080,2080,2080,2080,2080,0,
0,1623,1624,1624,1624,1624,1624,1624,1624,1624,1624,1624,1624,1848,1849,2080,2080,2080,2080,2080,2080,0,
0,1623,1624,1624,1624,1624,1624,1624,1624,1624,1624,1624,1624,2080,2080,2080,2080,2080,2080,2080,2080,0,
0,1623,1624,1624,1624,1624,1624,1624,1624,1624,1624,1624,1624,2080,2080,2080,2080,2080,2080,2080,2080,0,
0,1623,1624,1624,1624,1624,1624,1624,1624,1624,1624,1624,1624,168,245,2080,2080,2080,2080,2080,2080,0,
0,1623,1624,1624,1624,1624,1624,1624,1624,1624,1624,1624,1624,244,245,2080,2080,2080,2080,2080,2080,0,
0,1623,1624,1624,1624,1624,1624,1624,1624,1624,1624,1624,1624,2080,2080,2080,2080,2080,2080,2080,2080,0,
0,1623,1624,1624,1624,1624,1624,1624,1624,1624,1624,1624,1624,2080,2080,2080,2080,2080,2080,2080,2080,0,
0,2672,2673,2673,2673,2673,2673,2673,2673,2673,2673,2673,2673,2080,2080,2080,2080,2080,2080,2080,2080,0,
0,2748,2749,2749,2749,2749,2749,2749,2749,2749,2749,2749,2749,2080,2080,2080,2080,2080,2080,2080,2080,0,
0,1015,1016,1016,1016,1016,1016,1016,1016,1016,1016,1016,1016,2673,2674,2080,2080,2080,2080,2080,2080,0,
0,1015,1016,1016,1016,1016,1016,1016,1016,1016,1016,1016,1016,2749,2750,2080,2080,2080,2080,2080,2080,0,
0,1015,1016,1016,1016,1016,1016,1016,1016,1016,1016,1016,1016,2080,2080,2080,2080,2080,2080,2080,2080,0,
0,1015,1016,1016,1016,1016,1016,1016,1016,1016,1016,1016,1016,2080,2080,2080,2080,2080,2080,2080,2080,0,
0,1015,1016,1016,1016,1016,1016,1016,1016,1016,1016,1016,1016,168,245,2080,2080,2080,2080,2080,2080,0,
0,1015,1016,1016,1016,1016,1016,1016,1016,1016,1016,1016,1016,244,245,2080,2080,2080,2080,2080,2080,0,
0,1015,1016,1016,1016,1016,1016,1016,1016,1016,1016,1016,1016,2080,2080,2080,2080,2080,2080,2080,2080,0,
0,1015,1016,1016,1016,1016,1016,1016,1016,1016,1016,1016,1016,2080,2080,2080,2080,2080,2080,2080,2080,0,
0,168,244,244,244,168,244,244,244,244,244,244,244,2080,2080,2080,2080,2080,2080,2080,2080,0,
0,244,244,244,244,244,244,244,244,244,244,244,244,2080,2080,2080,2080,2080,2080,2080,2080,0,
0,2080,2080,2080,2080,2080,2080,2080,2080,2080,2080,2080,2080,2080,2080,2080,2080,2080,2080,2080,2080,0,
0,2080,2080,2080,2080,2080,2080,2080,2080,2080,2080,2080,2080,2080,2080,2080,2080,2080,2080,2080,2080,0,
0,0,0,0,0,0,0,0,0,0,0,0,0,0,0,0,0,0,0,0,0,0
</data>
 </layer>
 <layer id="3" name="걸레받이" width="22" height="69">
  <data encoding="csv">
0,0,0,0,0,0,0,0,0,0,0,0,0,0,0,0,0,0,0,0,0,0,
0,0,0,0,0,0,0,0,0,0,0,0,0,0,0,0,0,0,0,0,0,0,
0,0,0,0,0,0,0,0,0,0,0,0,0,2147484080,2147484080,2147484080,2147484080,2147484080,2147484080,2147484080,2147484080,0,
0,0,0,0,0,0,0,0,0,0,0,0,0,0,0,0,0,0,0,0,0,288,
0,0,0,0,0,0,0,0,0,0,0,0,0,0,0,0,0,0,0,0,0,288,
0,0,0,0,0,0,0,0,0,0,0,0,0,0,0,0,0,0,0,0,0,288,
0,2147484080,2147484080,2147484080,2147484080,2147484080,2147484080,2147484080,2147484080,2147484080,2147484080,2147484080,2147484080,0,0,0,0,0,0,0,0,0,
0,0,0,0,0,0,0,0,0,0,0,0,0,0,0,0,0,0,0,0,0,0,
0,0,0,0,0,0,0,0,0,0,0,0,0,2147484080,2147484080,0,0,0,0,0,0,0,
0,0,0,0,0,0,0,0,0,0,0,0,0,0,0,0,0,0,0,0,0,0,
0,0,0,0,0,0,0,0,0,0,0,0,0,0,0,0,0,0,0,0,0,0,
0,0,0,0,0,0,0,0,0,0,0,0,0,0,0,0,0,0,0,0,0,0,
0,0,0,0,0,0,0,0,0,0,0,0,0,2147484080,2147484080,0,0,0,0,0,0,0,
0,0,0,0,0,0,0,0,0,0,0,0,0,0,0,0,0,0,0,0,0,0,
0,0,0,0,0,0,0,0,0,0,0,0,0,0,0,0,0,0,0,0,0,0,
0,0,0,0,0,0,0,0,0,0,0,0,0,0,0,0,0,0,0,0,0,0,
0,2147484080,2147484080,2147484080,2147484080,2147484080,2147484080,2147484080,2147484080,2147484080,2147484080,2147484080,2147484080,0,0,0,0,0,0,0,0,0,
0,0,0,0,0,0,0,0,0,0,0,0,0,0,0,0,0,0,0,0,0,0,
0,0,0,0,0,0,0,0,0,0,0,0,0,2147484080,2147484080,0,0,0,0,0,0,0,
0,0,0,0,0,0,0,0,0,0,0,0,0,0,0,0,0,0,0,0,0,0,
0,0,0,0,0,0,0,0,0,0,0,0,0,0,0,0,0,0,0,0,0,0,
0,0,0,0,0,0,0,0,0,0,0,0,0,0,0,0,0,0,0,0,0,0,
0,0,0,0,0,0,0,0,0,0,0,0,0,2147484080,2147484080,0,0,0,0,0,0,0,
0,0,0,0,0,0,0,0,0,0,0,0,0,0,0,0,0,0,0,0,0,0,
0,0,0,0,0,0,0,0,0,0,0,0,0,0,0,0,0,0,0,0,0,0,
0,0,0,0,0,0,0,0,0,0,0,0,0,0,0,0,0,0,0,0,0,0,
0,2147484080,2147484080,2147484080,2147484080,2147484080,2147484080,2147484080,2147484080,2147484080,2147484080,2147484080,2147484080,0,0,0,0,0,0,0,0,0,
0,0,0,0,0,0,0,0,0,0,0,0,0,0,0,0,0,0,0,0,0,0,
0,0,0,0,0,0,0,0,0,0,0,0,0,2147484080,2147484080,0,0,0,0,0,0,0,
0,0,0,0,0,0,0,0,0,0,0,0,0,0,0,0,0,0,0,0,0,0,
0,0,0,0,0,0,0,0,0,0,0,0,0,0,0,0,0,0,0,0,0,0,
0,0,0,0,0,0,0,0,0,0,0,0,0,0,0,0,0,0,0,0,0,0,
0,0,0,0,0,0,0,0,0,0,0,0,0,2147484080,2147484080,0,0,0,0,0,0,0,
0,0,0,0,0,0,0,0,0,0,0,0,0,0,0,0,0,0,0,0,0,0,
0,0,0,0,0,0,0,0,0,0,0,0,0,0,0,0,0,0,0,0,0,0,
0,0,0,0,0,0,0,0,0,0,0,0,0,0,0,0,0,0,0,0,0,0,
0,2147484080,2147484080,2147484080,2147484080,2147484080,2147484080,2147484080,2147484080,2147484080,2147484080,2147484080,2147484080,0,0,0,0,0,0,0,0,0,
0,0,0,0,0,0,0,0,0,0,0,0,0,0,0,0,0,0,0,0,0,0,
0,0,0,0,0,0,0,0,0,0,0,0,0,2147484080,2147484080,0,0,0,0,0,0,0,
0,0,0,0,0,0,0,0,0,0,0,0,0,0,0,0,0,0,0,0,0,0,
0,0,0,0,0,0,0,0,0,0,0,0,0,0,0,0,0,0,0,0,0,0,
0,0,0,0,0,0,0,0,0,0,0,0,0,0,0,0,0,0,0,0,0,0,
0,0,0,0,0,0,0,0,0,0,0,0,0,2147484080,2147484080,0,0,0,0,0,0,0,
0,0,0,0,0,0,0,0,0,0,0,0,0,0,0,0,0,0,0,0,0,0,
0,0,0,0,0,0,0,0,0,0,0,0,0,0,0,0,0,0,0,0,0,0,
0,0,0,0,0,0,0,0,0,0,0,0,0,0,0,0,0,0,0,0,0,0,
0,2147484080,2147484080,2147484080,2147484080,2147484080,2147484080,2147484080,2147484080,2147484080,2147484080,2147484080,2147484080,0,0,0,0,0,0,0,0,0,
0,0,0,0,0,0,0,0,0,0,0,0,0,0,0,0,0,0,0,0,0,0,
0,0,0,0,0,0,0,0,0,0,0,0,0,2147484080,2147484080,0,0,0,0,0,0,0,
0,0,0,0,0,0,0,0,0,0,0,0,0,0,0,0,0,0,0,0,0,0,
0,0,0,0,0,0,0,0,0,0,0,0,0,0,0,0,0,0,0,0,0,0,
0,0,0,0,0,0,0,0,0,0,0,0,0,0,0,0,0,0,0,0,0,0,
0,0,0,0,0,0,0,0,0,0,0,0,0,2147484080,2147484080,0,0,0,0,0,0,0,
0,0,0,0,0,0,0,0,0,0,0,0,0,0,0,0,0,0,0,0,0,0,
0,0,0,0,0,0,0,0,0,0,0,0,0,0,0,0,0,0,0,0,0,0,
0,0,0,0,0,0,0,0,0,0,0,0,0,0,0,0,0,0,0,0,0,0,
0,2147484080,2147484080,2147484080,2147484080,2147484080,2147484080,2147484080,2147484080,2147484080,2147484080,2147484080,2147484080,0,0,0,0,0,0,0,0,0,
0,0,0,0,0,0,0,0,0,0,0,0,0,0,0,0,0,0,0,0,0,0,
0,0,0,0,0,0,0,0,0,0,0,0,0,2147484080,2147484080,0,0,0,0,0,0,0,
0,0,0,0,0,0,0,0,0,0,0,0,0,0,0,0,0,0,0,0,0,0,
0,0,0,0,0,0,0,0,0,0,0,0,0,0,0,0,0,0,0,0,0,0,
0,0,0,0,0,0,0,0,0,0,0,0,0,0,0,0,0,0,0,0,0,0,
0,0,0,0,0,0,0,0,0,0,0,0,0,2147484080,2147484080,0,0,0,0,0,0,0,
0,0,0,0,0,0,0,0,0,0,0,0,0,0,0,0,0,0,0,0,0,0,
0,0,0,0,0,0,0,0,0,0,0,0,0,0,0,0,0,0,0,0,0,0,
0,0,0,0,0,0,0,0,0,0,0,0,0,0,0,0,0,0,0,0,0,0,
0,2147484080,2147484080,2147484080,2147484080,2147484080,2147484080,2147484080,2147484080,2147484080,2147484080,2147484080,2147484080,0,0,0,0,0,0,0,0,0,
0,0,0,0,0,0,0,0,0,0,0,0,0,0,0,0,0,0,0,0,0,0,
0,0,0,0,0,0,0,0,0,0,0,0,0,0,0,0,0,0,0,0,0,0
</data>
 </layer>
 <layer id="5" name="걸레받이 세로" width="22" height="69">
  <data encoding="csv">
0,0,0,0,0,0,0,0,0,0,0,0,0,0,0,0,0,0,0,0,0,0,
0,0,0,0,0,0,0,0,0,0,0,0,0,0,0,0,0,0,0,0,0,0,
0,0,0,0,0,0,0,0,0,0,0,0,0,507,0,0,0,0,0,0,0,0,
0,0,0,0,0,0,0,0,0,0,0,0,0,507,0,0,0,0,0,0,0,0,
0,0,0,0,0,0,0,0,0,0,0,0,0,0,0,0,0,0,0,0,0,0,
0,0,0,0,0,0,0,0,0,0,0,0,0,0,0,0,0,0,0,0,0,0,
0,507,0,0,0,0,0,0,0,0,0,0,0,0,0,0,0,0,0,0,0,0,
0,507,0,0,0,0,0,0,0,0,0,0,0,0,0,0,0,0,0,0,0,0,
0,507,0,0,0,0,0,0,0,0,0,0,0,0,0,0,0,0,0,0,0,0,
0,507,0,0,0,0,0,0,0,0,0,0,0,0,0,0,0,0,0,0,0,0,
0,507,0,0,0,0,0,0,0,0,0,0,0,0,0,0,0,0,0,0,0,0,
0,507,0,0,0,0,0,0,0,0,0,0,0,0,0,0,0,0,0,0,0,0,
0,507,0,0,0,0,0,0,0,0,0,0,0,0,0,0,0,0,0,0,0,0,
0,507,0,0,0,0,0,0,0,0,0,0,0,0,0,0,0,0,0,0,0,0,
0,0,0,0,0,0,0,0,0,0,0,0,0,0,0,0,0,0,0,0,0,0,
0,0,0,0,0,0,0,0,0,0,0,0,0,0,0,0,0,0,0,0,0,0,
0,507,0,0,0,0,0,0,0,0,0,0,0,0,0,0,0,0,0,0,0,0,
0,507,0,0,0,0,0,0,0,0,0,0,0,0,0,0,0,0,0,0,0,0,
0,507,0,0,0,0,0,0,0,0,0,0,0,0,0,0,0,0,0,0,0,0,
0,507,0,0,0,0,0,0,0,0,0,0,0,0,0,0,0,0,0,0,0,0,
0,507,0,0,0,0,0,0,0,0,0,0,0,0,0,0,0,0,0,0,0,0,
0,507,0,0,0,0,0,0,0,0,0,0,0,0,0,0,0,0,0,0,0,0,
0,507,0,0,0,0,0,0,0,0,0,0,0,0,0,0,0,0,0,0,0,0,
0,507,0,0,0,0,0,0,0,0,0,0,0,0,0,0,0,0,0,0,0,0,
0,0,0,0,0,0,0,0,0,0,0,0,0,0,0,0,0,0,0,0,0,0,
0,0,0,0,0,0,0,0,0,0,0,0,0,0,0,0,0,0,0,0,0,0,
0,507,0,0,0,0,0,0,0,0,0,0,0,0,0,0,0,0,0,0,0,0,
0,507,0,0,0,0,0,0,0,0,0,0,0,0,0,0,0,0,0,0,0,0,
0,507,0,0,0,0,0,0,0,0,0,0,0,0,0,0,0,0,0,0,0,0,
0,507,0,0,0,0,0,0,0,0,0,0,0,0,0,0,0,0,0,0,0,0,
0,507,0,0,0,0,0,0,0,0,0,0,0,0,0,0,0,0,0,0,0,0,
0,507,0,0,0,0,0,0,0,0,0,0,0,0,0,0,0,0,0,0,0,0,
0,507,0,0,0,0,0,0,0,0,0,0,0,0,0,0,0,0,0,0,0,0,
0,507,0,0,0,0,0,0,0,0,0,0,0,0,0,0,0,0,0,0,0,0,
0,0,0,0,0,0,0,0,0,0,0,0,0,0,0,0,0,0,0,0,0,0,
0,0,0,0,0,0,0,0,0,0,0,0,0,0,0,0,0,0,0,0,0,0,
0,507,0,0,0,0,0,0,0,0,0,0,0,0,0,0,0,0,0,0,0,0,
0,507,0,0,0,0,0,0,0,0,0,0,0,0,0,0,0,0,0,0,0,0,
0,507,0,0,0,0,0,0,0,0,0,0,0,0,0,0,0,0,0,0,0,0,
0,507,0,0,0,0,0,0,0,0,0,0,0,0,0,0,0,0,0,0,0,0,
0,507,0,0,0,0,0,0,0,0,0,0,0,0,0,0,0,0,0,0,0,0,
0,507,0,0,0,0,0,0,0,0,0,0,0,0,0,0,0,0,0,0,0,0,
0,507,0,0,0,0,0,0,0,0,0,0,0,0,0,0,0,0,0,0,0,0,
0,507,0,0,0,0,0,0,0,0,0,0,0,0,0,0,0,0,0,0,0,0,
0,0,0,0,0,0,0,0,0,0,0,0,0,0,0,0,0,0,0,0,0,0,
0,0,0,0,0,0,0,0,0,0,0,0,0,0,0,0,0,0,0,0,0,0,
0,507,0,0,0,0,0,0,0,0,0,0,0,0,0,0,0,0,0,0,0,0,
0,507,0,0,0,0,0,0,0,0,0,0,0,0,0,0,0,0,0,0,0,0,
0,507,0,0,0,0,0,0,0,0,0,0,0,0,0,0,0,0,0,0,0,0,
0,507,0,0,0,0,0,0,0,0,0,0,0,0,0,0,0,0,0,0,0,0,
0,507,0,0,0,0,0,0,0,0,0,0,0,0,0,0,0,0,0,0,0,0,
0,507,0,0,0,0,0,0,0,0,0,0,0,0,0,0,0,0,0,0,0,0,
0,507,0,0,0,0,0,0,0,0,0,0,0,0,0,0,0,0,0,0,0,0,
0,507,0,0,0,0,0,0,0,0,0,0,0,0,0,0,0,0,0,0,0,0,
0,0,0,0,0,0,0,0,0,0,0,0,0,0,0,0,0,0,0,0,0,0,
0,0,0,0,0,0,0,0,0,0,0,0,0,0,0,0,0,0,0,0,0,0,
0,507,0,0,0,0,0,0,0,0,0,0,0,0,0,0,0,0,0,0,0,0,
0,507,0,0,0,0,0,0,0,0,0,0,0,0,0,0,0,0,0,0,0,0,
0,507,0,0,0,0,0,0,0,0,0,0,0,0,0,0,0,0,0,0,0,0,
0,507,0,0,0,0,0,0,0,0,0,0,0,0,0,0,0,0,0,0,0,0,
0,507,0,0,0,0,0,0,0,0,0,0,0,0,0,0,0,0,0,0,0,0,
0,507,0,0,0,0,0,0,0,0,0,0,0,0,0,0,0,0,0,0,0,0,
0,507,0,0,0,0,0,0,0,0,0,0,0,0,0,0,0,0,0,0,0,0,
0,507,0,0,0,0,0,0,0,0,0,0,0,0,0,0,0,0,0,0,0,0,
0,507,0,0,0,0,0,0,0,0,0,0,0,0,0,0,0,0,0,0,0,0,
0,507,0,0,0,0,0,0,0,0,0,0,0,0,0,0,0,0,0,0,0,0,
0,507,0,0,0,0,0,0,0,0,0,0,0,0,0,0,0,0,0,0,0,0,
0,507,0,0,0,0,0,0,0,0,0,0,0,0,0,0,0,0,0,0,0,0,
0,0,0,0,0,0,0,0,0,0,0,0,0,0,0,0,0,0,0,0,0,0
</data>
 </layer>
 <layer id="11" name="벽뒤가구" width="22" height="69">
  <data encoding="csv">
0,0,0,0,0,0,0,0,0,0,0,0,0,0,0,0,0,0,0,0,0,0,
0,0,0,0,0,0,0,0,0,0,0,0,0,0,0,0,0,0,0,0,0,0,
0,0,0,0,0,0,0,0,0,0,0,0,0,0,0,0,0,0,0,0,0,0,
0,0,0,0,0,0,0,0,0,0,0,0,0,0,0,0,0,0,0,0,0,0,
0,0,0,0,0,0,0,0,0,0,0,0,0,0,0,0,0,0,0,0,0,0,
0,0,0,0,0,0,0,0,0,0,0,0,0,0,0,0,0,0,0,0,0,0,
0,0,0,0,0,0,0,0,0,0,0,0,0,0,0,0,0,0,0,0,0,0,
0,0,0,0,0,0,0,0,0,0,0,0,0,0,0,0,0,0,0,0,0,0,
0,0,0,0,0,0,0,0,0,0,0,0,0,0,0,0,0,0,0,0,0,0,
0,0,0,0,0,0,0,0,0,0,0,0,0,0,0,0,0,0,0,0,0,0,
0,0,0,0,0,0,0,0,0,0,0,0,0,0,0,0,0,0,0,0,0,0,
0,0,0,0,0,0,0,0,0,0,0,0,0,0,0,0,0,0,0,0,0,0,
0,0,0,0,0,0,0,0,0,0,0,0,0,0,0,0,0,0,0,0,0,0,
0,0,0,0,0,0,0,0,0,0,0,0,0,0,0,0,0,0,0,0,0,0,
0,0,0,0,0,0,0,0,0,0,0,0,0,0,0,0,0,0,0,0,0,0,
0,0,0,0,0,0,0,0,0,0,0,0,0,15525,15526,0,0,0,0,0,0,0,
0,0,0,0,0,0,0,0,0,0,0,0,0,15541,15542,0,0,0,0,0,0,0,
0,0,0,0,0,0,0,0,0,0,0,0,0,0,0,0,0,0,0,0,0,0,
0,0,0,0,0,0,0,0,0,0,0,0,0,0,0,0,0,0,0,0,0,0,
0,0,0,0,0,0,0,0,0,0,0,0,0,0,0,0,0,0,0,0,0,0,
0,0,0,0,0,0,0,0,0,0,0,0,0,0,0,0,0,0,0,0,0,0,
0,0,0,0,0,0,0,0,0,0,0,0,0,0,0,0,0,0,0,0,0,0,
0,0,0,0,0,0,0,0,0,0,0,0,0,14334,0,0,0,0,0,0,0,0,
0,0,0,0,0,0,0,0,0,0,0,0,0,14350,0,0,0,0,0,0,0,0,
0,0,0,0,0,0,0,0,0,0,0,0,0,14366,0,0,0,0,0,0,0,0,
0,0,0,0,0,0,0,0,0,0,0,0,0,14382,0,0,0,0,0,0,0,0,
0,0,0,0,0,0,0,0,0,0,0,0,0,0,0,0,0,0,0,0,0,0,
0,0,0,0,0,0,0,0,0,0,0,0,0,0,0,0,0,0,0,0,0,0,
0,0,0,0,0,0,0,0,0,0,0,0,0,0,0,0,0,0,0,0,0,0,
0,0,0,0,0,0,0,0,0,0,0,0,0,0,0,0,0,0,0,0,0,0,
0,0,0,0,0,0,0,0,0,0,0,0,0,0,0,0,0,0,0,0,0,0,
0,0,0,0,0,0,0,0,0,0,0,0,0,14966,14967,0,0,0,0,0,0,0,
0,0,0,0,0,0,0,0,0,0,0,0,0,14982,14983,0,0,0,0,0,0,0,
0,0,0,0,0,0,0,0,0,0,0,0,0,15014,15015,0,0,0,0,0,0,0,
0,0,0,0,0,0,0,0,0,0,0,0,0,15014,15015,0,0,0,0,0,0,0,
0,0,0,0,0,0,0,0,0,0,0,0,0,14998,14999,0,0,0,0,0,0,0,
0,0,0,0,0,0,0,0,0,0,0,0,0,0,0,0,0,0,0,0,0,0,
0,0,0,0,0,0,0,0,0,0,0,0,0,0,0,0,0,0,0,0,0,0,
0,0,0,0,0,0,0,0,0,0,0,0,0,0,0,0,0,0,0,0,0,0,
0,0,0,0,0,0,0,0,0,0,0,0,0,0,0,0,0,0,0,0,0,0,
0,0,0,0,0,0,0,0,0,0,0,0,0,19615,19616,0,0,0,0,0,0,0,
0,0,0,0,0,0,0,0,0,0,0,0,0,19633,19634,0,0,0,0,0,0,0,
0,0,0,0,0,0,0,0,0,0,0,0,0,19647,19648,0,0,0,0,0,0,0,
0,0,0,0,0,0,0,0,0,0,0,0,0,0,0,0,0,0,0,0,0,0,
0,0,0,0,0,0,0,0,0,0,0,0,0,0,21893,0,0,0,0,0,0,0,
0,0,0,0,0,0,0,0,0,0,0,0,0,21908,21909,0,0,0,0,0,0,0,
0,0,0,0,0,0,0,0,0,0,0,0,0,21924,21925,0,0,0,0,0,0,0,
0,0,0,0,0,0,0,0,0,0,0,0,0,0,0,0,0,0,0,0,0,0,
0,0,0,0,0,0,0,0,0,0,0,0,0,0,0,0,0,0,0,0,0,0,
0,0,0,0,0,0,0,0,0,0,0,0,0,0,0,0,0,0,0,0,0,0,
0,0,0,0,0,0,0,0,0,0,0,0,0,0,0,0,0,0,0,0,0,0,
0,0,0,0,0,0,0,0,0,0,0,0,0,0,0,0,0,0,0,0,0,0,
0,0,0,0,0,0,0,0,0,0,0,0,0,0,0,0,0,0,0,0,0,0,
0,0,0,0,0,0,0,0,0,0,0,0,0,0,0,0,0,0,0,0,0,0,
0,0,0,0,0,0,0,0,0,0,0,0,0,0,0,0,0,0,0,0,0,0,
0,0,0,0,0,0,0,0,0,0,0,0,0,15491,15492,0,0,0,0,0,0,0,
0,0,0,0,0,0,0,0,0,0,0,0,0,15507,15508,0,0,0,0,0,0,0,
0,0,0,0,0,0,0,0,0,0,0,0,0,0,0,0,0,0,0,0,0,0,
0,0,0,0,0,0,0,0,0,0,0,0,0,0,0,0,0,0,0,0,0,0,
0,0,0,0,0,0,0,0,0,0,0,0,0,0,0,0,0,0,0,0,0,0,
0,0,0,0,0,0,0,0,0,0,0,0,0,21187,0,0,0,0,0,0,0,0,
0,0,0,0,0,0,0,0,0,0,0,0,0,21203,21218,0,0,0,0,0,0,0,
0,0,0,0,0,0,0,0,0,0,0,0,0,21233,21234,0,0,0,0,0,0,0,
0,0,0,0,0,0,0,0,0,0,0,0,0,0,0,0,0,0,0,0,0,0,
0,0,0,0,0,0,0,0,0,0,0,0,0,0,0,0,0,0,0,0,0,0,
0,0,0,0,0,0,0,0,0,0,0,0,0,0,0,0,0,0,0,0,0,0,
0,0,0,0,0,0,0,0,0,0,0,0,0,0,0,0,0,0,0,0,0,0,
0,15060,15061,15061,15062,0,0,0,0,0,0,0,0,0,0,0,0,0,0,0,0,0,
0,0,0,0,0,0,0,0,0,0,0,0,0,0,0,0,0,0,0,0,0,0
</data>
 </layer>
 <layer id="2" name="벽" width="22" height="69">
  <data encoding="csv">
0,0,0,0,0,0,0,0,0,0,0,0,468,469,469,469,469,469,469,469,469,470,
0,0,0,0,0,0,0,0,0,0,0,0,544,0,0,0,0,0,0,0,0,546,
0,0,0,0,0,0,0,0,0,0,0,0,544,0,0,0,0,0,0,0,0,3221225938,
0,0,0,0,0,0,0,0,0,0,0,0,544,0,0,0,0,0,0,0,0,0,
468,0,0,0,0,0,0,0,0,0,0,0,0,470,0,0,0,0,0,0,0,0,
544,0,0,0,0,0,0,0,0,0,0,0,0,546,0,0,0,0,0,0,0,0,
544,0,0,0,0,0,0,0,0,0,0,0,0,463,464,0,0,0,0,0,0,467,
544,0,0,0,0,0,0,0,0,0,0,0,0,0,0,0,0,0,0,0,0,546,
544,0,0,0,0,0,0,0,0,0,0,0,0,0,0,0,0,0,0,0,0,546,
544,0,0,0,0,0,0,0,0,0,0,0,0,0,0,0,0,0,0,0,0,546,
544,0,0,0,0,0,0,0,0,0,0,0,0,539,464,0,0,0,0,0,0,546,
544,0,0,0,0,0,0,0,0,0,0,0,0,546,0,0,0,0,0,0,0,546,
544,0,0,0,0,0,0,0,0,0,0,0,0,546,0,0,0,0,0,0,0,546,
544,0,0,0,0,0,0,0,0,0,0,0,0,546,0,0,0,0,0,0,0,546,
468,0,0,0,0,0,0,0,0,0,0,0,0,470,0,0,0,0,0,0,0,546,
544,0,0,0,0,0,0,0,0,0,0,0,0,546,0,0,0,0,0,0,0,546,
544,0,0,0,0,0,0,0,0,0,0,0,0,463,464,0,0,0,0,0,0,546,
544,0,0,0,0,0,0,0,0,0,0,0,0,0,0,0,0,0,0,0,0,546,
544,0,0,0,0,0,0,0,0,0,0,0,0,0,0,0,0,0,0,0,0,546,
544,0,0,0,0,0,0,0,0,0,0,0,0,0,0,0,0,0,0,0,0,546,
544,0,0,0,0,0,0,0,0,0,0,0,0,539,464,0,0,0,0,0,0,546,
544,0,0,0,0,0,0,0,0,0,0,0,0,546,0,0,0,0,0,0,0,546,
544,0,0,0,0,0,0,0,0,0,0,0,0,546,0,0,0,0,0,0,0,546,
544,0,0,0,0,0,0,0,0,0,0,0,0,546,0,0,0,0,0,0,0,546,
468,0,0,0,0,0,0,0,0,0,0,0,0,470,0,0,0,0,0,0,0,546,
544,0,0,0,0,0,0,0,0,0,0,0,0,546,0,0,0,0,0,0,0,546,
544,0,0,0,0,0,0,0,0,0,0,0,0,463,464,0,0,0,0,0,0,546,
544,0,0,0,0,0,0,0,0,0,0,0,0,0,0,0,0,0,0,0,0,546,
544,0,0,0,0,0,0,0,0,0,0,0,0,0,0,0,0,0,0,0,0,546,
544,0,0,0,0,0,0,0,0,0,0,0,0,0,0,0,0,0,0,0,0,546,
544,0,0,0,0,0,0,0,0,0,0,0,0,539,464,0,0,0,0,0,0,546,
544,0,0,0,0,0,0,0,0,0,0,0,0,546,0,0,0,0,0,0,0,546,
544,0,0,0,0,0,0,0,0,0,0,0,0,546,0,0,0,0,0,0,0,546,
544,0,0,0,0,0,0,0,0,0,0,0,0,546,0,0,0,0,0,0,0,546,
468,0,0,0,0,0,0,0,0,0,0,0,0,470,0,0,0,0,0,0,0,546,
544,0,0,0,0,0,0,0,0,0,0,0,0,546,0,0,0,0,0,0,0,546,
544,0,0,0,0,0,0,0,0,0,0,0,0,463,464,0,0,0,0,0,0,546,
544,0,0,0,0,0,0,0,0,0,0,0,0,0,0,0,0,0,0,0,0,546,
544,0,0,0,0,0,0,0,0,0,0,0,0,0,0,0,0,0,0,0,0,546,
544,0,0,0,0,0,0,0,0,0,0,0,0,0,0,0,0,0,0,0,0,546,
544,0,0,0,0,0,0,0,0,0,0,0,0,539,464,0,0,0,0,0,0,546,
544,0,0,0,0,0,0,0,0,0,0,0,0,546,0,0,0,0,0,0,0,546,
544,0,0,0,0,0,0,0,0,0,0,0,0,546,0,0,0,0,0,0,0,546,
544,0,0,0,0,0,0,0,0,0,0,0,0,546,0,0,0,0,0,0,0,546,
468,0,0,0,0,0,0,0,0,0,0,0,0,470,0,0,0,0,0,0,0,546,
544,0,0,0,0,0,0,0,0,0,0,0,0,546,0,0,0,0,0,0,0,546,
544,0,0,0,0,0,0,0,0,0,0,0,0,463,464,0,0,0,0,0,0,546,
544,0,0,0,0,0,0,0,0,0,0,0,0,0,0,0,0,0,0,0,0,546,
544,0,0,0,0,0,0,0,0,0,0,0,0,0,0,0,0,0,0,0,0,546,
544,0,0,0,0,0,0,0,0,0,0,0,0,0,0,0,0,0,0,0,0,546,
544,0,0,0,0,0,0,0,0,0,0,0,0,539,464,0,0,0,0,0,0,546,
544,0,0,0,0,0,0,0,0,0,0,0,0,546,0,0,0,0,0,0,0,546,
544,0,0,0,0,0,0,0,0,0,0,0,0,546,0,0,0,0,0,0,0,546,
544,0,0,0,0,0,0,0,0,0,0,0,0,546,0,0,0,0,0,0,0,546,
468,0,0,0,0,0,0,0,0,0,0,0,0,470,0,0,0,0,0,0,0,546,
544,0,0,0,0,0,0,0,0,0,0,0,0,546,0,0,0,0,0,0,0,546,
544,0,0,0,0,0,0,0,0,0,0,0,0,463,464,0,0,0,0,0,0,546,
544,0,0,0,0,0,0,0,0,0,0,0,0,0,0,0,0,0,0,0,0,546,
544,0,0,0,0,0,0,0,0,0,0,0,0,0,0,0,0,0,0,0,0,546,
544,0,0,0,0,0,0,0,0,0,0,0,0,0,0,0,0,0,0,0,0,546,
544,0,0,0,0,0,0,0,0,0,0,0,0,539,464,0,0,0,0,0,0,546,
544,0,0,0,0,0,0,0,0,0,0,0,0,546,0,0,0,0,0,0,0,546,
544,0,0,0,0,0,0,0,0,0,0,0,0,546,0,0,0,0,0,0,0,546,
544,0,0,0,0,0,0,0,0,0,0,0,0,546,0,0,0,0,0,0,0,546,
468,621,469,469,469,469,469,469,469,469,469,469,469,470,0,0,0,0,0,0,0,546,
544,0,0,0,0,0,0,0,0,0,0,0,0,546,0,0,0,0,0,0,0,546,
544,0,0,0,0,0,0,0,0,0,0,0,0,0,0,0,0,0,0,0,0,546,
544,0,0,0,0,0,0,0,0,0,0,0,0,0,0,0,0,0,0,0,0,546,
620,621,469,469,469,469,469,469,469,469,469,469,469,469,469,469,469,469,469,469,469,622
</data>
 </layer>
 <layer id="4" name="가구1" width="22" height="69">
  <data encoding="csv">
0,0,0,0,0,0,0,0,0,0,0,0,0,0,8707,0,0,0,28189,8781,8782,0,
0,0,0,0,0,0,0,0,0,0,0,0,0,8755,8723,0,0,0,28205,8797,8798,0,
0,0,0,0,0,0,0,0,0,0,0,0,0,8771,8739,9549,9568,9570,9551,0,0,0,
0,0,0,0,0,0,0,0,0,0,0,0,0,0,0,9565,9584,9566,9567,0,0,0,
0,0,0,0,0,0,0,0,0,0,0,0,0,0,0,9581,9582,9582,9583,0,0,0,
0,22349,22350,22397,22382,22414,22415,0,0,0,22542,22543,22512,0,0,0,0,0,0,0,0,0,
0,22365,22366,22413,22398,22430,22431,0,0,0,22558,22559,22528,0,0,0,0,0,0,0,0,0,
0,22381,22381,22381,22381,0,0,0,22616,22617,0,0,0,0,0,0,0,0,0,0,0,0,
0,0,22347,22347,0,0,0,0,22632,22633,0,0,0,0,0,0,0,0,0,0,0,0,
0,0,0,0,0,0,0,0,0,0,0,0,0,0,0,0,0,0,0,0,0,0,
0,22358,22359,0,0,0,0,22119,22120,0,0,0,0,0,0,0,0,0,0,0,0,0,
0,22374,22375,0,22347,0,0,22151,22152,0,0,22607,0,15461,15462,0,0,0,0,0,0,0,
0,22390,22391,0,22347,0,0,22167,22168,0,0,22623,0,15477,15478,0,0,0,0,0,0,0,
0,0,0,0,0,0,0,0,0,0,0,22639,0,15577,15578,0,0,0,0,0,0,0,
0,0,0,0,0,0,0,0,0,11871,0,0,0,15593,15594,0,0,0,0,0,0,0,
0,0,0,14605,14606,14607,14608,14609,0,11887,0,0,0,0,0,0,0,0,0,0,0,0,
0,0,0,14621,14622,14623,14624,14625,0,0,0,0,0,0,0,0,0,0,0,0,0,0,
0,0,0,14637,14638,14639,14640,14641,0,0,0,0,0,0,0,0,0,0,0,0,0,0,
0,0,0,8722,8659,8660,8661,8721,0,0,0,0,0,0,0,0,0,0,0,0,0,0,
0,0,0,8738,8675,8676,8677,8737,0,0,0,0,0,0,0,0,0,0,0,0,0,0,
0,0,0,0,8675,8676,8677,0,0,0,0,0,0,0,0,0,0,0,0,0,0,0,
0,0,0,0,8675,8676,8677,0,0,0,0,0,0,0,9976,0,0,0,0,0,0,0,
0,0,0,0,8691,8692,8693,0,0,0,0,0,0,0,9992,0,0,0,0,0,0,0,
0,0,0,0,0,0,0,0,0,0,0,0,0,0,0,0,0,0,0,0,0,0,
0,10587,10587,0,0,0,0,0,0,0,0,10587,10587,0,0,0,0,0,0,0,0,0,
0,10603,10603,0,0,0,10588,10588,0,0,0,10603,10603,0,0,0,0,0,0,0,0,0,
0,10619,10619,0,0,0,10604,10604,0,0,0,10619,10619,0,0,0,0,0,0,0,0,0,
0,0,0,0,25233,25234,0,25221,25222,25223,25229,25230,0,0,0,0,0,0,0,0,0,0,
0,0,0,0,25247,25248,0,25237,25238,25239,0,0,0,0,0,0,0,0,0,0,0,0,
0,0,25139,0,0,0,0,0,0,0,25370,0,0,0,0,0,0,0,0,0,0,0,
0,0,25187,25188,0,0,10612,10615,0,0,25386,25371,0,0,12704,0,0,0,0,0,0,0,
0,0,25203,25204,0,0,10628,10631,0,0,25402,25387,0,0,12720,0,0,0,0,0,0,0,
0,0,19166,19167,0,0,0,0,0,0,0,25403,0,0,0,0,0,0,0,0,0,0,
0,0,19182,19183,0,0,0,0,0,0,0,0,0,0,0,0,0,0,0,0,0,0,
0,17255,10758,10790,10854,10918,10886,10822,10807,10808,0,0,0,0,0,0,0,0,0,0,0,0,
0,17271,10774,10806,10870,10934,10902,10838,10823,10824,0,0,10980,0,0,0,0,0,0,0,0,0,
0,17287,0,0,0,0,0,0,10839,10840,0,0,10996,0,0,0,0,0,0,0,0,0,
0,15889,15890,15891,0,0,0,0,0,0,0,0,0,0,0,0,0,0,0,0,0,0,
0,0,0,0,0,0,0,0,0,0,0,0,0,0,0,0,0,0,0,0,0,0,
0,0,0,0,0,0,0,0,0,0,0,0,0,0,0,0,0,0,0,0,0,0,
0,0,0,0,9969,9970,0,0,17193,17194,17131,17132,0,0,0,0,0,0,0,0,0,0,
0,0,0,0,9985,9986,0,0,17209,17210,17147,17148,0,0,0,0,0,0,0,0,0,0,
0,10981,0,0,0,0,0,0,0,0,0,0,0,0,0,0,0,0,0,0,0,0,
0,10997,0,0,0,0,0,0,0,0,0,0,0,0,0,0,0,0,0,0,0,0,
0,25611,25608,25608,25611,25608,25608,25610,25610,25611,25610,25610,25611,0,0,0,0,0,0,0,0,0,
0,0,0,0,25655,25656,25658,25658,25658,25659,0,0,17808,0,0,0,0,0,0,0,0,0,
0,0,0,0,25671,25672,25674,25674,25674,25675,0,0,0,0,0,0,0,0,0,0,0,0,
0,0,0,0,0,0,0,0,0,0,0,0,0,0,0,0,0,0,0,0,0,0,
0,0,0,0,0,0,0,0,0,0,0,0,0,0,0,0,0,0,0,0,0,0,
0,0,0,0,0,0,25632,25633,0,0,0,0,0,0,0,0,0,0,0,0,0,0,
0,0,0,0,0,0,25648,25649,0,0,0,0,0,0,0,0,0,0,0,0,0,0,
0,0,0,0,0,0,0,0,0,17757,17758,17760,17759,15427,15428,0,0,0,0,0,0,0,
0,22379,22380,22993,22994,0,0,0,0,17773,17774,17776,17775,15443,15444,0,0,0,0,0,0,0,
0,22395,22396,23009,23010,0,0,0,0,0,0,0,0,15579,15580,0,0,0,0,0,0,0,
0,0,0,0,0,0,0,0,0,0,0,0,0,15595,15596,0,0,0,0,0,0,0,
0,0,0,0,0,0,0,19231,0,0,8863,8864,8865,0,0,0,0,0,0,0,0,0,
0,0,0,9200,0,0,0,19247,0,0,8879,8880,8881,0,0,0,0,0,0,0,0,0,
0,0,9198,9199,0,0,0,0,0,0,8895,8896,8897,0,0,0,0,0,0,0,0,0,
0,0,9214,9215,0,0,0,0,0,0,0,0,0,0,0,0,0,0,0,0,0,0,
0,0,0,8752,0,0,0,0,0,0,0,0,0,0,0,0,0,0,0,0,0,0,
0,0,0,8768,0,0,0,0,0,0,0,0,0,0,0,0,0,0,0,0,0,0,
0,0,0,0,0,0,0,0,19579,19575,19576,27279,27280,0,0,0,0,0,0,0,0,0,
0,0,0,0,0,0,0,0,19595,19591,19592,27295,27296,0,0,0,0,0,0,0,0,0,
0,0,0,0,0,0,0,0,19611,19609,19610,27311,27312,0,0,0,0,0,0,0,0,0,
0,0,9823,9824,0,0,0,0,0,0,0,0,23934,23935,0,0,0,0,0,0,0,0,
0,0,9839,9840,0,0,0,15489,15490,0,15423,15424,23950,23951,0,0,0,0,0,0,0,0,
0,0,0,0,0,0,0,15505,15506,13802,15439,15440,23966,23967,0,0,0,0,0,0,0,0,
0,0,0,0,0,0,0,0,0,13818,0,0,0,0,0,0,0,0,0,0,0,0,
0,0,0,0,0,0,0,0,0,0,0,0,0,0,0,0,0,0,0,0,0,0
</data>
 </layer>
 <layer id="6" name="가구2" width="22" height="69">
  <data encoding="csv">
0,0,0,0,0,0,0,0,0,0,0,0,0,0,0,0,0,0,0,0,0,0,
0,0,0,0,0,0,0,0,0,0,0,0,0,0,0,0,0,0,0,0,0,0,
0,0,0,0,0,0,0,0,0,0,0,0,0,0,0,0,0,0,0,0,0,0,
0,0,0,0,0,0,0,0,0,0,0,0,0,0,0,0,0,0,0,0,0,0,
0,0,0,0,0,0,0,0,0,0,0,0,0,0,0,0,0,0,0,0,0,0,
0,0,0,0,0,0,0,22509,22510,22511,22512,0,0,0,0,0,0,0,0,0,0,0,
0,0,0,0,0,22499,22500,22525,22526,22527,22582,0,0,0,0,0,0,0,0,0,0,0,
0,0,0,0,0,22515,22516,0,0,0,22598,0,0,0,0,0,0,0,0,0,0,0,
0,0,0,11167,11168,22531,22532,0,0,0,22614,0,0,0,0,0,0,0,0,0,0,0,
0,0,0,11183,11184,0,0,0,0,0,0,0,0,0,0,0,0,0,0,0,0,0,
0,0,0,11199,11200,0,0,0,0,0,0,0,0,0,0,0,0,0,0,0,0,0,
0,22358,22359,0,0,0,0,0,0,0,0,0,22603,0,0,0,0,0,0,0,0,0,
0,22438,22439,0,0,0,0,0,0,0,0,0,22619,0,0,0,0,0,0,0,0,0,
0,22454,22455,0,0,0,0,0,0,0,0,0,0,0,0,0,0,0,0,0,0,0,
0,0,0,0,0,0,0,0,0,0,0,0,0,0,0,0,0,0,0,0,0,0,
0,0,0,0,0,0,0,0,0,0,8841,9205,9206,0,0,0,0,0,0,0,0,0,
0,0,0,0,0,0,0,14548,0,0,8857,9221,9222,0,0,0,0,0,0,0,0,0,
0,0,0,0,0,0,0,14564,0,0,8873,9237,9238,0,0,0,0,0,0,0,0,0,
0,0,0,0,0,0,8874,0,0,0,0,0,0,0,0,0,0,0,0,0,0,0,
0,0,0,8722,8814,0,8890,8721,0,0,0,0,0,0,0,0,0,0,0,0,0,0,
0,0,0,8738,8844,0,8830,8737,0,0,0,0,0,0,9978,0,0,0,0,0,0,0,
0,19047,0,0,8860,0,0,0,0,0,0,9253,9254,0,9994,0,0,0,0,0,0,0,
0,19063,0,0,0,0,0,0,0,0,0,9269,9270,0,0,0,0,0,0,0,0,0,
0,19079,0,0,0,0,0,0,0,0,0,9237,9238,0,0,0,0,0,0,0,0,0,
0,0,0,0,0,0,0,0,0,0,0,0,0,0,0,0,0,0,0,0,0,0,
0,0,0,0,0,0,0,0,0,0,0,0,0,0,0,0,0,0,0,0,0,0,
0,0,0,0,0,0,0,0,0,0,0,0,0,0,0,0,0,0,0,0,0,0,
0,0,25185,25186,0,0,0,0,0,0,25228,25260,0,0,0,0,0,0,0,0,0,0,
0,0,25217,25218,0,0,0,0,0,0,25244,25276,0,0,0,0,0,0,0,0,0,0,
0,0,0,0,0,0,0,0,0,0,0,0,0,0,0,0,0,0,0,0,0,0,
0,0,0,0,0,0,0,0,0,0,0,0,0,0,0,0,0,0,0,0,0,0,
0,0,0,0,0,13788,0,0,0,0,0,0,0,0,0,0,0,0,0,0,0,0,
0,0,19165,19184,0,0,0,0,0,0,0,0,0,0,0,0,0,0,0,0,0,0,
0,0,0,0,0,0,0,0,0,0,0,0,0,0,0,0,0,0,0,0,0,0,
0,0,0,0,0,0,0,0,0,0,0,0,0,0,0,0,0,0,0,0,0,0,
0,0,0,0,0,0,0,0,0,10919,10920,0,0,0,0,0,0,0,0,0,0,0,
0,0,0,0,0,0,0,0,10891,10935,10936,0,0,0,0,0,0,0,0,0,0,0,
0,0,0,11015,11016,11017,0,0,10907,10908,0,0,0,0,0,0,0,0,0,0,0,0,
0,0,0,11031,11032,11033,0,0,0,0,0,0,0,0,0,0,0,0,0,0,0,0,
0,0,0,0,0,0,0,0,0,0,17237,0,0,0,0,0,0,0,0,0,0,0,
0,0,10034,10035,0,10807,10808,0,17177,17178,17253,17116,0,0,0,0,0,0,0,0,0,0,
0,0,10050,10051,10891,10823,10824,0,0,0,0,0,0,0,0,0,0,0,0,0,0,0,
0,0,0,0,10907,10839,10840,0,0,0,0,0,0,0,0,0,0,0,0,0,0,0,
0,0,0,0,0,0,0,0,0,0,0,0,0,0,0,0,0,0,0,0,0,0,
0,17845,0,0,0,0,0,0,0,0,0,0,0,0,0,0,0,0,0,0,0,0,
0,17861,0,0,0,21465,21465,21465,21465,0,0,0,0,0,0,0,0,0,0,0,0,0,
0,17877,0,25603,25604,21481,21481,21481,21481,25601,25602,0,0,0,0,0,0,0,0,0,0,0,
0,0,0,25619,25620,0,0,0,0,25617,25618,0,0,0,0,0,0,0,0,0,0,0,
0,0,0,25635,25636,0,0,0,0,0,25634,0,0,0,0,0,0,0,0,0,0,0,
0,0,0,0,0,0,0,0,0,17809,17810,17811,17812,0,0,0,0,0,0,0,0,0,
0,0,22278,0,0,0,0,0,0,17825,17826,17827,17828,0,0,0,0,0,0,0,0,0,
0,0,22277,0,0,0,0,0,0,17841,17842,17843,17844,0,0,0,0,0,0,0,0,0,
0,0,22293,23001,23002,0,0,0,0,0,17848,17848,0,0,0,0,0,0,0,0,0,0,
0,0,0,23017,23018,0,0,0,0,0,17864,17864,0,0,0,0,0,0,0,0,0,0,
0,19071,0,8604,27261,27262,0,0,8781,8782,0,0,0,0,0,0,0,0,0,0,0,0,
0,19087,0,8620,27277,27278,0,19200,8797,8798,0,0,0,0,0,0,0,0,0,0,0,0,
0,19103,8754,0,0,0,0,0,0,0,0,0,0,0,0,0,0,0,0,0,0,0,
0,0,8770,3221234793,0,0,0,0,0,0,19181,19168,0,0,0,0,0,0,0,0,0,0,
0,0,0,0,26384,0,0,0,0,0,19182,19183,0,0,0,0,0,0,0,0,0,0,
0,0,0,0,26400,0,0,0,0,0,0,0,0,0,0,0,0,0,0,0,0,0,
0,9005,9076,9077,9078,0,0,0,0,0,0,0,0,0,13930,0,0,0,0,0,0,0,
0,9021,9022,9023,9024,19039,0,0,0,0,0,0,27821,0,13946,0,0,0,0,0,0,0,
0,9037,9038,9039,9040,19055,0,0,0,0,0,0,27837,0,0,0,0,0,0,0,0,0,
0,0,0,0,0,0,0,0,0,0,0,0,0,0,0,0,0,0,0,0,0,0,
0,0,0,0,0,0,0,0,0,0,0,0,0,0,0,0,0,0,0,0,0,0,
0,0,0,0,0,0,0,0,0,0,0,0,0,0,0,0,0,0,0,0,0,0,
0,0,0,0,0,0,0,0,0,14205,0,0,0,0,0,0,0,0,0,0,0,0,
0,0,0,0,0,0,0,0,0,0,0,0,0,0,0,0,0,0,0,0,0,0,
0,0,0,0,0,0,0,0,0,0,0,0,0,0,0,0,0,0,0,0,0,0
</data>
 </layer>
 <layer id="8" name="가구3" width="22" height="69">
  <data encoding="csv">
0,0,0,0,0,0,0,0,0,0,0,0,0,0,0,0,0,0,0,0,0,0,
0,0,0,0,0,0,0,0,0,0,0,0,0,0,0,0,0,0,0,0,0,0,
0,0,0,0,0,0,0,0,0,0,0,0,0,0,0,0,0,0,0,0,0,0,
0,0,0,0,0,0,0,0,0,0,0,0,0,0,0,0,0,0,0,0,0,0,
0,0,0,0,0,0,0,0,0,0,0,0,0,0,0,0,0,0,0,0,0,0,
0,0,0,0,0,0,0,0,0,0,0,0,0,0,0,0,0,0,0,0,0,0,
0,0,0,0,0,0,0,0,0,0,0,0,0,0,0,0,0,0,0,0,0,0,
0,0,0,0,0,0,0,0,0,0,0,0,0,0,0,0,0,0,0,0,0,0,
0,0,0,0,0,22475,22476,0,0,0,0,0,0,0,0,0,0,0,0,0,0,0,
0,0,0,0,0,22491,22492,0,0,0,0,0,0,0,0,0,0,0,0,0,0,0,
0,0,0,0,0,0,0,0,0,0,0,0,0,0,0,0,0,0,0,0,0,0,
0,0,0,0,0,0,0,0,0,0,0,0,0,0,0,0,0,0,0,0,0,0,
0,0,0,0,0,0,0,0,0,0,0,0,22603,0,0,0,0,0,0,0,0,0,
0,0,0,0,0,0,0,0,0,0,0,0,22619,0,0,0,0,0,0,0,0,0,
0,0,0,0,0,0,0,0,0,0,0,0,0,0,0,0,0,0,0,0,0,0,
0,0,0,0,0,0,0,0,0,0,0,0,0,0,0,0,0,0,0,0,0,0,
0,0,0,0,0,0,0,0,0,0,0,0,0,0,0,0,0,0,0,0,0,0,
0,0,0,0,0,0,0,0,0,0,0,0,0,0,0,0,0,0,0,0,0,0,
0,0,0,0,0,0,0,0,0,0,0,0,0,0,0,0,0,0,0,0,0,0,
0,0,0,0,0,0,0,0,0,0,0,0,0,0,0,0,0,0,0,0,0,0,
0,0,0,8722,0,0,0,8721,0,0,0,0,0,0,0,0,0,0,0,0,0,0,
0,0,0,8738,0,0,0,8737,0,0,0,0,0,0,0,0,0,0,0,0,0,0,
0,0,0,0,0,0,0,0,0,0,0,0,0,0,0,0,0,0,0,0,0,0,
0,0,0,0,0,0,0,0,0,0,0,0,0,0,0,0,0,0,0,0,0,0,
0,0,0,0,0,0,0,0,0,0,0,0,0,0,0,0,0,0,0,0,0,0,
0,0,0,0,0,0,0,0,0,0,0,0,0,0,0,0,0,0,0,0,0,0,
0,0,0,0,0,0,0,0,0,0,0,0,0,0,0,0,0,0,0,0,0,0,
0,0,0,0,0,0,0,0,0,0,0,0,0,0,0,0,0,0,0,0,0,0,
0,0,0,0,0,0,0,0,0,0,0,0,0,0,0,0,0,0,0,0,0,0,
0,0,0,0,0,0,0,0,0,0,0,0,0,0,0,0,0,0,0,0,0,0,
0,0,0,0,0,0,0,0,0,0,0,0,0,0,0,0,0,0,0,0,0,0,
0,0,0,0,0,0,0,0,0,0,0,0,0,0,0,0,0,0,0,0,0,0,
0,0,0,0,0,0,0,0,0,0,0,0,0,0,0,0,0,0,0,0,0,0,
0,0,0,0,0,0,0,0,0,0,0,0,0,0,0,0,0,0,0,0,0,0,
0,0,0,0,0,0,0,0,0,0,0,0,0,0,0,0,0,0,0,0,0,0,
0,0,0,0,0,0,0,0,0,10950,10951,0,0,0,0,0,0,0,0,0,0,0,
0,0,0,0,0,0,0,0,10891,10966,10856,10923,0,0,0,0,0,0,0,0,0,0,
0,0,0,0,0,0,0,0,10907,10908,10872,10939,0,0,0,0,0,0,0,0,0,0,
0,0,0,0,0,0,0,0,0,0,0,0,0,0,0,0,0,0,0,0,0,0,
0,0,0,0,0,0,0,0,0,0,0,0,0,0,0,0,0,0,0,0,0,0,
0,0,0,0,10964,10965,0,0,0,0,0,0,0,0,0,0,0,0,0,0,0,0,
0,0,0,10859,10887,10888,20615,0,0,0,0,0,0,0,0,0,0,0,0,0,0,0,
0,0,0,10875,10903,10904,20631,0,0,0,0,0,0,0,0,0,0,0,0,0,0,0,
0,0,0,0,0,0,0,0,0,0,0,0,0,0,0,0,0,0,0,0,0,0,
0,0,0,0,0,0,0,0,0,0,0,0,0,0,0,0,0,0,0,0,0,0,
0,17846,0,0,0,0,0,0,0,0,0,0,0,0,0,0,0,0,0,0,0,0,
0,17862,0,0,0,0,0,0,0,25600,0,0,0,0,0,0,0,0,0,0,0,0,
0,17878,0,0,0,0,0,0,0,25616,0,0,0,0,0,0,0,0,0,0,0,0,
0,0,0,25629,25630,0,0,0,0,0,0,0,0,0,0,0,0,0,0,0,0,0,
0,0,0,25645,25646,0,0,0,0,0,0,0,0,0,0,0,0,0,0,0,0,0,
0,0,0,0,0,0,0,0,0,0,0,0,0,0,0,0,0,0,0,0,0,0,
0,0,0,0,0,0,0,0,0,0,0,0,0,0,0,0,0,0,0,0,0,0,
0,0,0,0,0,0,0,0,0,0,0,0,0,0,0,0,0,0,0,0,0,0,
0,0,0,0,0,0,0,0,0,0,0,0,0,0,0,0,0,0,0,0,0,0,
0,0,0,0,0,0,0,0,0,0,0,0,0,0,0,0,0,0,0,0,0,0,
0,0,0,0,0,0,0,0,0,0,0,0,0,0,0,0,0,0,0,0,0,0,
0,0,0,0,0,0,0,0,0,0,0,0,0,0,0,0,0,0,0,0,0,0,
0,0,9173,8764,0,0,0,0,0,0,0,0,0,0,0,0,0,0,0,0,0,0,
0,0,9189,8780,0,0,0,0,0,0,0,0,0,0,0,0,0,0,0,0,0,0,
0,0,0,0,0,0,0,0,0,0,0,0,0,0,0,0,0,0,0,0,0,0,
0,0,0,0,0,0,0,0,0,0,0,0,0,0,0,0,0,0,0,0,0,0,
0,0,9076,9077,9078,0,0,0,0,0,0,0,0,0,0,0,0,0,0,0,0,0,
0,0,9092,9093,9094,0,0,0,0,0,0,0,0,0,0,0,0,0,0,0,0,0,
0,0,0,0,0,0,0,0,0,0,0,0,0,0,0,0,0,0,0,0,0,0,
0,0,0,0,0,0,0,0,0,0,0,0,0,0,0,0,0,0,0,0,0,0,
0,0,0,0,0,0,0,0,0,0,0,0,0,0,0,0,0,0,0,0,0,0,
0,0,0,0,0,0,0,0,0,0,0,0,0,0,0,0,0,0,0,0,0,0,
0,0,0,0,0,0,0,0,0,0,0,0,0,0,0,0,0,0,0,0,0,0,
0,0,0,0,0,0,0,0,0,0,0,0,0,0,0,0,0,0,0,0,0,0
</data>
 </layer>
 <layer id="9" name="가구4" width="22" height="69">
  <data encoding="csv">
0,0,0,0,0,0,0,0,0,0,0,0,0,0,0,0,0,0,0,0,0,0,
0,0,0,0,0,0,0,0,0,0,0,0,0,0,0,0,0,0,0,0,0,0,
0,0,0,0,0,0,0,0,0,0,0,0,0,0,0,0,0,0,0,19039,19040,0,
0,0,0,0,0,0,0,0,0,0,0,0,0,0,0,0,0,0,0,19055,19056,0,
0,0,0,0,0,0,0,0,0,0,0,0,0,0,0,0,0,0,0,0,0,0,
0,0,0,0,0,0,0,0,0,0,0,0,0,0,0,0,0,0,0,0,0,0,
0,0,0,0,0,0,0,0,0,0,0,0,0,0,0,0,0,0,0,0,0,0,
0,0,0,0,0,0,0,0,0,0,0,0,0,0,0,0,0,0,0,0,0,0,
0,0,0,0,0,22473,22474,0,0,0,0,0,0,0,0,0,0,0,0,0,0,0,
0,0,0,0,0,0,0,0,0,0,0,0,0,0,0,0,0,0,0,0,0,0,
0,0,0,0,0,0,0,0,0,0,0,0,0,0,0,0,0,0,0,0,0,0,
0,0,0,0,0,0,0,0,0,0,0,0,0,0,0,0,0,0,0,0,0,0,
0,0,0,0,0,0,0,0,0,0,0,0,0,0,0,0,0,0,0,0,0,0,
0,0,0,0,0,0,0,0,0,0,0,0,0,0,0,0,0,0,0,0,0,0,
0,0,0,0,0,0,0,0,0,0,0,0,0,0,0,0,0,0,0,0,0,0,
0,8788,8789,0,0,0,0,0,0,0,0,0,0,0,0,0,0,0,0,0,0,0,
0,8804,8805,0,0,0,0,0,0,0,0,0,0,0,0,0,0,0,0,0,0,0,
0,8820,8821,0,0,0,0,0,0,0,0,0,0,0,0,0,0,0,0,0,0,0,
0,0,0,0,0,0,0,0,0,0,0,0,0,0,0,0,0,0,0,0,0,0,
0,0,0,0,0,0,0,0,0,0,0,0,0,0,0,0,0,0,0,0,0,0,
0,0,0,0,0,0,0,0,0,0,0,0,0,0,0,0,0,0,0,0,0,0,
0,0,0,8722,0,0,0,8721,0,0,0,0,0,0,0,0,0,0,0,0,0,0,
0,0,0,8738,0,0,0,8737,0,0,0,0,0,0,0,0,0,0,0,0,0,0,
0,0,0,0,0,0,0,0,0,0,0,0,0,0,0,0,0,0,0,0,0,0,
0,0,0,0,0,0,0,0,0,0,0,0,0,0,0,0,0,0,0,0,0,0,
0,0,0,0,0,0,0,0,0,0,0,0,0,0,0,0,0,0,0,0,0,0,
0,0,0,0,0,0,0,0,0,0,0,0,0,0,0,0,0,0,0,0,0,0,
0,0,0,0,0,0,0,0,0,0,0,0,0,0,0,0,0,0,0,0,0,0,
0,0,0,0,0,0,0,0,0,0,0,0,0,0,0,0,0,0,0,0,0,0,
0,0,0,0,0,0,0,0,0,0,0,0,0,0,0,0,0,0,0,0,0,0,
0,0,0,0,0,0,0,0,0,0,0,0,0,0,0,0,0,0,0,0,0,0,
0,0,0,0,0,0,0,0,0,0,0,0,0,0,0,0,0,0,0,0,0,0,
0,0,0,0,0,0,0,0,0,0,0,0,0,0,0,0,0,0,0,0,0,0,
0,0,0,0,0,0,0,0,0,0,0,0,0,0,0,0,0,0,0,0,0,0,
0,0,0,0,0,0,0,0,0,0,0,0,0,0,0,0,0,0,0,0,0,0,
0,0,0,0,0,0,0,0,0,0,0,0,0,0,0,0,0,0,0,0,0,0,
0,0,0,0,0,0,0,0,10891,10892,0,0,0,0,0,0,0,0,0,0,0,0,
0,0,0,0,0,0,0,0,10907,10908,0,0,0,0,0,0,0,0,0,0,0,0,
0,0,0,0,0,0,0,0,0,0,0,0,0,0,0,0,0,0,0,0,0,0,
0,0,0,0,0,0,0,0,0,0,0,0,0,0,0,0,0,0,0,0,0,0,
0,0,0,0,0,0,0,0,0,0,0,0,0,0,0,0,0,0,0,0,0,0,
0,0,0,0,0,0,0,0,0,0,0,0,0,0,0,0,0,0,0,0,0,0,
0,0,0,0,0,20519,0,0,0,0,0,0,0,0,0,0,0,0,0,0,0,0,
0,0,0,0,0,0,0,0,0,0,0,0,0,0,0,0,0,0,0,0,0,0,
0,0,0,0,0,0,0,0,0,0,0,0,0,0,0,0,0,0,0,0,0,0,
0,0,0,0,0,0,0,0,0,0,0,0,0,0,0,0,0,0,0,0,0,0,
0,0,0,0,0,0,0,0,0,0,0,0,0,0,0,0,0,0,0,0,0,0,
0,0,0,0,0,0,0,0,0,0,0,0,0,0,0,0,0,0,0,0,0,0,
0,0,0,0,0,0,0,0,0,0,0,0,0,0,0,0,0,0,0,0,0,0,
0,0,0,0,0,0,0,0,0,0,0,0,0,0,0,0,0,0,0,0,0,0,
0,0,0,0,0,0,0,0,0,0,0,0,0,0,0,0,0,0,0,0,0,0,
0,0,0,0,0,0,0,0,0,0,0,0,0,0,0,0,0,0,0,0,0,0,
0,0,0,0,0,0,0,0,0,0,0,0,0,0,0,0,0,0,0,0,0,0,
0,0,0,0,0,0,0,0,0,0,0,0,0,0,0,0,0,0,0,0,0,0,
0,0,0,0,0,0,0,0,0,0,0,0,0,0,0,0,0,0,0,0,0,0,
0,0,0,0,0,0,0,0,0,0,0,0,0,0,0,0,0,0,0,0,0,0,
0,0,0,8812,0,0,0,0,0,0,0,0,0,0,0,0,0,0,0,0,0,0,
0,0,0,0,0,0,0,0,0,0,0,0,0,0,0,0,0,0,0,0,0,0,
0,0,0,0,0,0,0,0,0,0,0,0,0,0,0,0,0,0,0,0,0,0,
0,0,0,0,0,0,0,0,0,0,0,0,0,0,0,0,0,0,0,0,0,0,
0,0,9114,9115,9116,0,0,0,0,0,0,0,0,0,0,0,0,0,0,0,0,0,
0,0,9111,9112,9113,0,0,0,0,0,0,0,0,0,0,0,0,0,0,0,0,0,
0,0,9127,9128,9129,0,0,0,0,0,0,0,0,0,0,0,0,0,0,0,0,0,
0,0,0,0,0,0,0,0,0,0,0,0,0,0,0,0,0,0,0,0,0,0,
0,0,0,0,0,0,0,0,0,0,0,0,0,0,0,0,0,0,0,0,0,0,
0,0,0,0,0,0,0,0,0,0,0,0,0,0,0,0,0,0,0,0,0,0,
0,0,0,0,0,0,0,0,0,0,0,0,0,0,0,0,0,0,0,0,0,0,
0,0,0,0,0,0,0,0,0,0,0,0,0,0,0,0,0,0,0,0,0,0,
0,0,0,0,0,0,0,0,0,0,0,0,0,0,0,0,0,0,0,0,0,0
</data>
 </layer>
 <layer id="10" name="가구5" width="22" height="69">
  <data encoding="csv">
0,0,0,0,0,0,0,0,0,0,0,0,0,0,0,0,0,0,0,0,0,0,
0,0,0,0,0,0,0,0,0,0,0,0,0,0,0,0,0,0,0,0,0,0,
0,0,0,0,0,0,0,0,0,0,0,0,0,0,0,0,0,0,0,0,0,0,
0,0,0,0,0,0,0,0,0,0,0,0,0,0,0,0,0,0,0,0,0,0,
0,0,0,0,0,0,0,0,0,0,0,0,0,0,0,0,0,0,0,0,0,0,
0,0,0,0,0,0,0,0,0,0,0,0,0,0,0,0,0,0,0,0,0,0,
0,0,0,0,0,0,0,0,0,0,0,0,0,0,0,0,0,0,0,0,0,0,
0,0,0,0,0,0,0,0,0,0,0,0,0,0,0,0,0,0,0,0,0,0,
0,0,0,0,0,0,0,0,0,0,0,0,0,0,0,0,0,0,0,0,0,0,
0,0,0,0,0,0,0,0,0,0,0,0,0,0,0,0,0,0,0,0,0,0,
0,0,0,0,0,0,0,0,0,0,0,0,0,0,0,0,0,0,0,0,0,0,
0,0,0,0,0,0,0,0,0,0,0,0,0,0,0,0,0,0,0,0,0,0,
0,0,0,0,0,0,0,0,0,0,0,0,0,0,0,0,0,0,0,0,0,0,
0,0,0,0,0,0,0,0,0,0,0,0,0,0,0,0,0,0,0,0,0,0,
0,0,0,0,0,0,0,0,0,0,0,0,0,0,0,0,0,0,0,0,0,0,
0,0,0,0,0,0,0,0,0,0,0,0,0,0,0,0,0,0,0,0,0,0,
0,0,0,0,0,0,0,0,0,0,0,0,0,0,0,0,0,0,0,0,0,0,
0,0,0,0,0,0,0,0,0,0,0,0,0,0,0,0,0,0,0,0,0,0,
0,0,0,0,0,0,0,0,0,0,0,0,0,0,0,0,0,0,0,0,0,0,
0,0,0,0,0,0,0,0,0,0,0,0,0,0,0,0,0,0,0,0,0,0,
0,0,0,0,0,0,0,0,0,0,0,0,0,0,0,0,0,0,0,0,0,0,
0,0,0,0,0,0,0,0,0,0,0,0,0,0,0,0,0,0,0,0,0,0,
0,0,0,0,0,0,0,0,0,0,0,0,0,0,0,0,0,0,0,0,0,0,
0,0,0,0,0,0,0,0,0,0,0,0,0,0,0,0,0,0,0,0,0,0,
0,0,0,0,0,0,0,0,0,0,0,0,0,0,0,0,0,0,0,0,0,0,
0,0,0,0,0,0,0,0,0,0,0,0,0,0,0,0,0,0,0,0,0,0,
0,0,0,0,0,0,0,0,0,0,0,0,0,0,0,0,0,0,0,0,0,0,
0,0,0,0,0,0,0,0,0,0,0,0,0,0,0,0,0,0,0,0,0,0,
0,0,0,0,0,0,0,0,0,0,0,0,0,0,0,0,0,0,0,0,0,0,
0,0,0,0,0,0,0,0,0,0,0,0,0,0,0,0,0,0,0,0,0,0,
0,0,0,0,0,0,0,0,0,0,0,0,0,0,0,0,0,0,0,0,0,0,
0,0,0,0,0,0,0,0,0,0,0,0,0,0,0,0,0,0,0,0,0,0,
0,0,0,0,0,0,0,0,0,0,0,0,0,0,0,0,0,0,0,0,0,0,
0,0,0,0,0,0,0,0,0,0,0,0,0,0,0,0,0,0,0,0,0,0,
0,0,0,0,0,0,0,0,0,0,0,0,0,0,0,0,0,0,0,0,0,0,
0,0,0,0,0,0,0,0,0,0,0,0,0,0,0,0,0,0,0,0,0,0,
0,0,0,0,0,0,0,0,0,0,0,0,0,0,0,0,0,0,0,0,0,0,
0,0,0,0,0,0,0,0,0,20502,0,0,0,0,0,0,0,0,0,0,0,0,
0,0,0,0,0,0,0,0,0,20518,0,0,0,0,0,0,0,0,0,0,0,0,
0,0,0,0,0,0,0,0,0,0,0,0,0,0,0,0,0,0,0,0,0,0,
0,0,0,0,0,0,0,0,0,0,0,0,0,0,0,0,0,0,0,0,0,0,
0,0,0,0,0,0,0,0,0,0,0,0,0,0,0,0,0,0,0,0,0,0,
0,0,0,0,0,0,0,0,0,0,0,0,0,0,0,0,0,0,0,0,0,0,
0,0,0,0,0,0,0,0,0,0,0,0,0,0,0,0,0,0,0,0,0,0,
0,0,0,0,0,0,0,0,0,0,0,0,0,0,0,0,0,0,0,0,0,0,
0,0,0,0,0,0,0,0,0,0,0,0,0,0,0,0,0,0,0,0,0,0,
0,0,0,0,0,0,0,0,0,0,0,0,0,0,0,0,0,0,0,0,0,0,
0,0,0,0,0,0,0,0,0,0,0,0,0,0,0,0,0,0,0,0,0,0,
0,0,0,0,0,0,0,0,0,0,0,0,0,0,0,0,0,0,0,0,0,0,
0,0,0,0,0,0,0,0,0,0,0,0,0,0,0,0,0,0,0,0,0,0,
0,0,0,0,0,0,0,0,0,0,0,0,0,0,0,0,0,0,0,0,0,0,
0,0,0,0,0,0,0,0,0,0,0,0,0,0,0,0,0,0,0,0,0,0,
0,0,0,0,0,0,0,0,0,0,0,0,0,0,0,0,0,0,0,0,0,0,
0,0,0,0,0,0,0,0,0,0,0,0,0,0,0,0,0,0,0,0,0,0,
0,0,0,0,0,0,0,0,0,0,0,0,0,0,0,0,0,0,0,0,0,0,
0,0,0,0,0,0,0,0,0,0,0,0,0,0,0,0,0,0,0,0,0,0,
0,0,0,0,0,0,0,0,0,0,0,0,0,0,0,0,0,0,0,0,0,0,
0,0,0,0,0,0,0,0,0,0,0,0,0,0,0,0,0,0,0,0,0,0,
0,0,0,0,0,0,0,0,0,0,0,0,0,0,0,0,0,0,0,0,0,0,
0,0,0,0,0,0,0,0,0,0,0,0,0,0,0,0,0,0,0,0,0,0,
0,0,0,0,0,0,0,0,0,0,0,0,0,0,0,0,0,0,0,0,0,0,
0,0,0,0,0,0,0,0,0,0,0,0,0,0,0,0,0,0,0,0,0,0,
0,0,0,8751,0,0,0,0,0,0,0,0,0,0,0,0,0,0,0,0,0,0,
0,0,0,8767,0,0,0,0,0,0,0,0,0,0,0,0,0,0,0,0,0,0,
0,0,0,0,0,0,0,0,0,0,0,0,0,0,0,0,0,0,0,0,0,0,
0,0,0,0,0,0,0,0,0,0,0,0,0,0,0,0,0,0,0,0,0,0,
0,0,0,0,0,0,0,0,0,0,0,0,0,0,0,0,0,0,0,0,0,0,
0,0,0,0,0,0,0,0,0,0,0,0,0,0,0,0,0,0,0,0,0,0,
0,0,0,0,0,0,0,0,0,0,0,0,0,0,0,0,0,0,0,0,0,0
</data>
 </layer>
</map>
